img/tovar-img.svg

<svg width="16" height="16" fill="none" xmlns="http://www.w3.org/2000/svg"><circle cx="8" cy="8" r="7" stroke="#333"/><path d="M4 6c.24928 0 2.75787-1.5 2.75787-1.5h2.49284S11.7507 6 12 6" stroke="#333"/><path d="m4.01577 5.39283-.00001 1.78523 1.74499.29754v4.463M11.9842 5.39283v1.78523l-1.7449.29754.0085 4.463M5.51145 11.4385h4.98565M6.50859 4.5s.49857 1.78522 1.4957 1.78522c.99713 0 1.4957-1.78522 1.4957-1.78522" stroke="#333"/></svg>

<svg width="16" height="16" viewBox="0 0 16 16" fill="none" xmlns="http://www.w3.org/2000/svg">
<circle cx="8" cy="8" r="7" stroke="#333333"/>
<path d="M4 6C4.24928 6 6.75787 4.5 6.75787 4.5H8.00429H9.25071C9.25071 4.5 11.7507 6 12 6" stroke="#333333"/>
<path d="M4.01577 5.39283L4.01576 7.17806L5.76075 7.4756L5.76075 11.9386" stroke="#333333"/>
<path d="M11.9842 5.39283L11.9842 7.17806L10.2393 7.4756L10.2478 11.9386" stroke="#333333"/>
<line x1="5.51145" y1="11.4385" x2="10.4971" y2="11.4385" stroke="#333333"/>
<path d="M6.50859 4.5C6.50859 4.5 7.00716 6.28522 8.00429 6.28522C9.00142 6.28522 9.49999 4.5 9.49999 4.5" stroke="#333333"/>
</svg>
